brandFactory_export/1.Light/Servidor cloud_1light.svg

<?xml version="1.0" encoding="UTF-8"?>
<svg width="24px" height="24px" viewBox="0 0 24 24" version="1.1" xmlns="http://www.w3.org/2000/svg" xmlns:xlink="http://www.w3.org/1999/xlink">
    <title>1.Light/Servidor cloud_1light</title>
    <g id="Symbols" stroke="none" stroke-width="1" fill="none" fill-rule="evenodd">
        <g id="1.Light/Servidor-cloud_1light" fill="#5CB615" fill-rule="nonzero">
            <path d="M22.605042,21.0420168 C22.594958,21.6268908 22.3630252,22.6151261 20.9142857,22.6151261 C19.4689076,22.6151261 19.2436975,21.6470588 19.2336134,21.0621849 L19.2336134,20.8705882 C19.2537815,20.2857143 19.4890756,19.3176471 20.8739496,19.287395 C20.8941176,19.297479 20.9042017,19.297479 20.9243697,19.297479 C20.9344538,19.297479 20.9546218,19.297479 20.9647059,19.287395 C22.3596639,19.3176471 22.594958,20.2857143 22.605042,20.8571429 L22.605042,21.0420168 L22.605042,21.0420168 Z M4.37983193,20.8705882 L4.37983193,21.0420168 C4.37983193,21.6369748 4.14453782,22.6151261 2.68907563,22.6151261 C1.25378151,22.6151261 1.02184874,21.6470588 1.02184874,21.0621849 L1.02184874,20.8705882 C1.03193277,20.2756303 1.27731092,19.287395 2.71260504,19.287395 C4.14453782,19.287395 4.3697479,20.2756303 4.37983193,20.8705882 L4.37983193,20.8705882 Z M6.60840336,12.5546218 C5.6605042,12.5546218 3.45210084,12.2521008 3.45210084,9.4487395 C3.45210084,7.87226891 4.14453782,6.87731092 5.48907563,6.50420168 C5.71092437,6.44369748 5.85546218,6.13109244 5.85546218,5.9092437 C5.85546218,1.36134454 9.86554622,1.00840336 11.0890756,1.00840336 C11.7915966,1.00840336 15.3042017,1.15966387 16.1411765,4.24537815 C16.205042,4.45714286 16.3966387,4.60840336 16.6184874,4.61512605 C17.7915966,4.64537815 20.5310924,5.09915966 20.5310924,8.54789916 C20.5310924,12.2084034 17.4352941,12.4907563 16.4773109,12.4907563 L6.60840336,12.5546218 Z M21.4352941,18.3294118 L21.4352941,15.112605 C21.4285714,14.8336134 21.2033613,14.6117647 20.9277311,14.6084034 L12.2689076,14.6084034 L12.2689076,13.5294118 L16.4739496,13.4991597 C17.3210084,13.4991597 21.5462185,13.2672269 21.5462185,8.54789916 C21.5462185,5.18991597 19.2739496,3.82184874 17.0151261,3.62689076 C15.8352941,0.181512605 11.892437,0 11.0890756,0 C10.0605042,0 5.00168067,0.272268908 4.83697479,5.65714286 C3.80840336,6.05042017 2.43361345,7.02857143 2.43361345,9.4487395 C2.43361345,12.4840336 4.59495798,13.5630252 6.60840336,13.5630252 L11.2537815,13.5327731 L11.2537815,14.6117647 L2.68571429,14.6117647 C2.54789916,14.6151261 2.41680672,14.6689076 2.31932773,14.7630252 C2.22857143,14.8605042 2.17478992,14.9915966 2.17815126,15.1226891 L2.18823529,18.3294118 C0.628571429,18.5512605 0.0201680672,19.7815126 0,20.8504202 L0,21.0722689 C0.0100840336,22.2521008 0.722689076,23.6235294 2.68571429,23.6235294 C4.66218487,23.6235294 5.38487395,22.2420168 5.39495798,21.0621849 L5.39495798,20.8403361 C5.37478992,19.7714286 4.77310924,18.5445378 3.20336134,18.3193277 L3.19327731,15.6168067 L20.4134454,15.6168067 L20.4134454,18.3294118 C18.8537815,18.5512605 18.2453782,19.7680672 18.2151261,20.8504202 L18.2151261,21.0722689 C18.2252101,22.2521008 18.9378151,23.6235294 20.9142857,23.6235294 C22.8806723,23.6235294 23.6,22.2420168 23.6235294,21.0621849 L23.6235294,20.8403361 C23.6033613,19.7714286 22.994958,18.5411765 21.4352941,18.3294118 Z" id="Servidor-cloud_1light"></path>
        </g>
    </g>
</svg>

<svg width="24" height="24" viewBox="0 0 24 24" xmlns="http://www.w3.org/2000/svg"><path d="M22.605 21.042c-.01.585-.242 1.573-1.69 1.573-1.446 0-1.671-.968-1.681-1.553v-.191c.02-.585.255-1.553 1.64-1.584.02.01.03.01.05.01.01 0 .03 0 .04-.01 1.396.03 1.631.999 1.641 1.57v.185zM4.38 20.871v.171c0 .595-.235 1.573-1.69 1.573-1.436 0-1.668-.968-1.668-1.553v-.191c.01-.595.255-1.584 1.69-1.584 1.433 0 1.658.989 1.668 1.584zm2.228-8.316c-.947 0-3.156-.303-3.156-3.106 0-1.577.693-2.572 2.037-2.945.222-.06.366-.373.366-.595 0-4.548 4.01-4.9 5.234-4.9.703 0 4.215.15 5.052 3.236a.518.518 0 00.477.37c1.174.03 3.913.484 3.913 3.933 0 3.66-3.096 3.943-4.054 3.943l-9.869.064zm14.827 5.774v-3.216a.515.515 0 00-.507-.505h-8.66V13.53l4.206-.03c.847 0 5.072-.232 5.072-4.951 0-3.358-2.272-4.726-4.53-4.921C15.835.182 11.891 0 11.088 0c-1.028 0-6.087.272-6.252 5.657C3.808 6.05 2.434 7.03 2.434 9.45c0 3.035 2.161 4.114 4.174 4.114l4.646-.03v1.079H2.686a.546.546 0 00-.367.151.517.517 0 00-.14.36l.01 3.206C.628 18.551.02 19.782 0 20.85v.222c.01 1.18.723 2.552 2.686 2.552 1.976 0 2.699-1.382 2.709-2.562v-.222c-.02-1.069-.622-2.295-2.192-2.52l-.01-2.703h17.22v2.712c-1.56.222-2.168 1.44-2.198 2.521v.222c.01 1.18.723 2.552 2.7 2.552 1.966 0 2.685-1.382 2.709-2.562v-.222c-.02-1.069-.629-2.299-2.189-2.51z" fill="#5CB615" fill-rule="nonzero"/></svg>
